icons/Map/pushpin-2-line.svg

<svg viewBox="0 0 24 24" xmlns="http://www.w3.org/2000/svg"><path d="M18 3V5H17V11L19 14V16H13V23H11V16H5V14L7 11V5H6V3H18ZM9 5V11.6056L7.4037 14H16.5963L15 11.6056V5H9Z"/></svg>

<svg xmlns="http://www.w3.org/2000/svg" viewBox="0 0 24 24">
    <g>
        <path fill="none" d="M0 0h24v24H0z"/>
        <path d="M18 3v2h-1v6l2 3v2h-6v7h-2v-7H5v-2l2-3V5H6V3h12zM9 5v6.606L7.404 14h9.192L15 11.606V5H9z"/>
    </g>
</svg>
